website/public/Images/logos/rancher.svg

<svg width="198" height="30" viewBox="0 0 198 30" fill="none" xmlns="http://www.w3.org/2000/svg">
<g clip-path="url(#clip0)">
<path d="M62.1258 6.58849L61.4421 2.4307C61.2246 1.08742 60.7273 0 60.3233 0C59.9193 0 59.5774 1.1194 59.5774 2.46269V3.55011C59.5774 4.89339 58.4897 6.01279 57.1844 6.01279H56.1277C56.0656 6.01279 55.9723 6.01279 55.9102 6.01279V9.01919C55.9723 9.01919 56.0656 9.01919 56.1277 9.01919H60.1057C61.4421 9.01919 62.3434 7.93177 62.1258 6.58849Z" fill="#3B4473"/>
<path d="M52.584 3.07036H46.1197C46.0575 3.07036 46.0264 3.07036 45.9643 3.07036H39.3446C39.2514 3.07036 39.1892 3.07036 39.127 3.10235V2.46269C39.127 1.1194 38.7852 0 38.3812 0C37.9771 0 37.4799 1.08742 37.2623 2.4307L36.5786 6.58849C36.3611 7.93177 37.2623 9.01919 38.5676 9.01919H42.5767C42.9807 9.01919 43.3848 8.95522 43.6956 8.82729C43.5712 9.53092 42.9807 10.0426 42.2659 10.0426H36.6718C35.7706 10.0426 35.0869 9.21109 35.2422 8.28358L35.8017 4.79744C35.957 3.86994 35.2733 3.03838 34.3721 3.03838H6.6191C6.02862 3.03838 5.53136 3.39019 5.28274 3.9339L0.0615763 12.1535C-0.0316587 12.2814 -0.0316587 12.4733 0.0926546 12.6013L1.11824 13.8486C1.24255 14.0085 1.4601 14.0405 1.61549 13.9126L5.15842 11.0341V28.5608C5.15842 29.3923 5.81107 30.064 6.6191 30.064H14.513C15.321 30.064 15.9737 29.3923 15.9737 28.5608V22.484C15.9737 21.6525 16.6263 20.9808 17.4344 20.9808H37.1069C37.915 20.9808 38.5676 21.6525 38.5676 22.484V28.5608C38.5676 29.3923 39.2203 30.064 40.0283 30.064H47.9222C48.7302 30.064 49.3829 29.3923 49.3829 28.5608V21.9403H45.1873C43.882 21.9403 42.7943 20.8209 42.7943 19.4776V15.2878C42.7943 14.4883 43.1672 13.7846 43.7577 13.3369V18.3582C43.7577 19.7015 44.8454 20.8209 46.1507 20.8209H52.615C53.9203 20.8209 55.0081 19.7015 55.0081 18.3582V5.56503C54.977 4.18976 53.8892 3.07036 52.584 3.07036Z" fill="#3B4473"/>
<path d="M67.4092 3.90039H76.2976C80.5242 3.90039 83.3524 6.01126 83.3524 10.0731C83.3524 13.3993 81.1458 15.3823 79.0014 16.0859C79.654 16.6296 80.1202 17.3972 80.4932 18.1968C81.3944 20.0838 81.9849 22.1307 83.8807 22.1307C84.3469 22.1307 84.7509 21.9708 84.7509 21.9708L84.3469 25.9047C84.3469 25.9047 83.197 26.1925 82.2025 26.1925C79.654 26.1925 78.1934 25.169 76.6705 21.6509C76.0179 20.0838 75.1477 17.3012 73.9667 17.3012H72.7547V26.0646H67.4092V3.90039ZM72.7547 7.89826V13.3354H74.6815C76.2043 13.3354 78.0069 12.8556 78.0069 10.4889C78.0069 8.53792 76.7948 7.89826 75.3341 7.89826H72.7547Z" fill="#3B4473"/>
<path d="M90.5625 3.90039H95.9702L103.243 26.0646H97.8349L96.4985 21.8748H89.2883L87.983 26.0646H83.3213L90.5625 3.90039ZM90.5625 17.813H95.1932L93.7325 13.1435C93.2353 11.5763 92.9867 9.33749 92.9867 9.33749H92.8623C92.8623 9.33749 92.5516 11.6083 92.0543 13.1115L90.5625 17.813Z" fill="#3B4473"/>
<path d="M103.46 3.90039H109.178L114.835 14.9025C115.301 15.862 115.953 17.5251 116.451 18.8364H116.575C116.513 17.5891 116.357 15.83 116.357 14.5187V3.90039H120.74V26.0646H115.145L109.272 15.0944C108.743 14.1029 108.153 12.6637 107.718 11.4803H107.593C107.687 12.7277 107.842 14.1989 107.842 15.4142V26.0646H103.46V3.90039Z" fill="#3B4473"/>
<path d="M121.858 14.8708C121.858 6.84307 125.712 3.54883 131.679 3.54883C137.957 3.54883 140.474 7.09893 139.791 11.8964L134.818 12.3441C135.346 8.82601 134.01 7.41876 131.586 7.41876C129.255 7.41876 127.359 9.17783 127.359 14.9028C127.359 20.9475 129.41 22.4827 131.741 22.4827C133.948 22.4827 135.719 21.0755 135.346 18.165L140.008 18.6448C140.35 23.1544 137.211 26.4486 131.462 26.4486C125.65 26.4806 121.858 22.9305 121.858 14.8708Z" fill="#3B4473"/>
<path d="M141.127 3.90039H146.441V12.2799H152.999V3.90039H158.313V26.0966H152.999V16.6936H146.441V26.0966H141.127V3.90039Z" fill="#3B4473"/>
<path d="M160.458 3.90039H174.723V7.99421H165.772V12.7597H173.293V16.8215H165.772V22.0027H175.034V26.0966H160.458V3.90039Z" fill="#3B4473"/>
<path d="M176.059 3.90039H184.948C189.174 3.90039 192.003 6.01126 192.003 10.0731C192.003 13.3993 189.796 15.3823 187.652 16.0859C188.304 16.6296 188.77 17.3972 189.143 18.1968C190.045 20.0838 190.635 22.1307 192.531 22.1307C192.997 22.1307 193.401 21.9708 193.401 21.9708L192.966 25.9047C192.966 25.9047 191.816 26.1925 190.822 26.1925C188.273 26.1925 186.812 25.169 185.29 21.6509C184.637 20.0838 183.767 17.3012 182.586 17.3012H181.374V26.0646H176.028V3.90039H176.059ZM181.405 7.89826V13.3354H183.332C184.855 13.3354 186.657 12.8556 186.657 10.4889C186.657 8.53792 185.445 7.89826 183.984 7.89826H181.405Z" fill="#3B4473"/>
<path d="M193.96 5.30862C193.96 4.06129 194.861 3.51758 195.7 3.51758C196.539 3.51758 197.441 4.06129 197.441 5.30862C197.441 6.52397 196.539 7.06768 195.7 7.06768C194.861 7.09967 193.96 6.55596 193.96 5.30862ZM197.006 5.30862C197.006 4.31715 196.384 3.90137 195.7 3.90137C195.017 3.90137 194.364 4.31715 194.364 5.30862C194.364 6.26811 195.017 6.71587 195.7 6.71587C196.384 6.71587 197.006 6.30009 197.006 5.30862ZM195.11 4.4131H195.731C196.042 4.4131 196.353 4.50905 196.353 4.95681C196.353 5.21267 196.167 5.37259 195.949 5.43655L196.353 6.17216H195.98L195.607 5.46854H195.452V6.17216H195.11V4.4131ZM195.763 5.21267C195.918 5.21267 196.042 5.11672 196.042 4.95681C196.042 4.76491 195.887 4.73293 195.763 4.73293H195.452V5.21267H195.763Z" fill="#3B4473"/>
</g>
<defs>
<clipPath id="clip0">
<rect width="198" height="30" fill="white"/>
</clipPath>
</defs>
</svg>

<svg xmlns="http://www.w3.org/2000/svg" width="198" height="30" fill="none" xmlns:v="https://vecta.io/nano"><g clip-path="url(#A)" fill="#3b4473"><path d="M62.126 6.588l-.684-4.158C61.225 1.087 60.727 0 60.323 0s-.746 1.119-.746 2.463V3.55c0 1.343-1.088 2.463-2.393 2.463h-1.057-.217v3.006h.217 3.978c1.336 0 2.238-1.087 2.02-2.431zM52.584 3.07H46.12h-.155-6.62c-.093 0-.155 0-.218.032v-.64c0-1.343-.342-2.463-.746-2.463s-.901 1.087-1.119 2.431l-.684 4.158c-.218 1.343.684 2.431 1.989 2.431h4.009c.404 0 .808-.064 1.119-.192a1.45 1.45 0 0 1-1.43 1.215h-5.594c-.901 0-1.585-.832-1.43-1.759l.559-3.486c.155-.927-.528-1.759-1.43-1.759H6.619c-.59 0-1.088.352-1.336.896l-5.221 8.22a.35.35 0 0 0 .031.448l1.026 1.247c.124.16.342.192.497.064l3.543-2.878v17.527c0 .831.653 1.503 1.461 1.503h7.894c.808 0 1.461-.672 1.461-1.503v-6.077c0-.832.653-1.503 1.461-1.503h19.673c.808 0 1.461.672 1.461 1.503v6.077c0 .831.653 1.503 1.461 1.503h7.894c.808 0 1.461-.672 1.461-1.503v-6.62H45.19c-1.305 0-2.393-1.119-2.393-2.463v-4.19a2.43 2.43 0 0 1 .963-1.951v5.021c0 1.343 1.088 2.463 2.393 2.463h6.464c1.305 0 2.393-1.119 2.393-2.463V5.565c-.031-1.375-1.119-2.495-2.424-2.495zm14.825.83h8.888c4.227 0 7.055 2.111 7.055 6.173 0 3.326-2.207 5.309-4.351 6.013.653.544 1.119 1.311 1.492 2.111.901 1.887 1.492 3.934 3.388 3.934.466 0 .87-.16.87-.16l-.404 3.934s-1.15.288-2.144.288c-2.549 0-4.009-1.023-5.532-4.542-.653-1.567-1.523-4.35-2.704-4.35h-1.212v8.763h-5.346V3.9zm5.346 3.998v5.437h1.927c1.523 0 3.325-.48 3.325-2.847 0-1.951-1.212-2.591-2.673-2.591h-2.579z"/><path d="M90.563 3.9h5.408l7.273 22.164h-5.408l-1.336-4.19h-7.21l-1.305 4.19h-4.662L90.563 3.9zm0 13.913h4.631l-1.461-4.669c-.497-1.567-.746-3.806-.746-3.806h-.124s-.311 2.271-.808 3.774l-1.492 4.701zM103.46 3.9h5.718l5.657 11.002c.466.96 1.118 2.623 1.616 3.934h.124l-.218-4.318V3.9h4.383v22.164h-5.595l-5.873-10.97c-.529-.992-1.119-2.431-1.554-3.614h-.125l.249 3.934v10.65h-4.382V3.9zm18.398 10.971c0-8.028 3.854-11.322 9.821-11.322 6.278 0 8.795 3.55 8.112 8.348l-4.973.448c.528-3.518-.808-4.925-3.232-4.925-2.331 0-4.227 1.759-4.227 7.484 0 6.045 2.051 7.58 4.382 7.58 2.207 0 3.978-1.407 3.605-4.318l4.662.48c.342 4.51-2.797 7.804-8.546 7.804-5.812.032-9.604-3.518-9.604-11.578zM141.127 3.9h5.314v8.38h6.558V3.9h5.314v22.196h-5.314v-9.403h-6.558v9.403h-5.314V3.9zm19.331 0h14.265v4.094h-8.951v4.765h7.521v4.062h-7.521v5.181h9.262v4.094h-14.576V3.9zm15.601 0h8.889c4.226 0 7.055 2.111 7.055 6.173 0 3.326-2.207 5.309-4.351 6.013.652.544 1.118 1.311 1.491 2.111.902 1.887 1.492 3.934 3.388 3.934.466 0 .87-.16.87-.16l-.435 3.934s-1.15.288-2.144.288c-2.549 0-4.01-1.023-5.532-4.542-.653-1.567-1.523-4.35-2.704-4.35h-1.212v8.763h-5.346V3.9h.031zm5.346 3.998v5.437h1.927c1.523 0 3.325-.48 3.325-2.847 0-1.951-1.212-2.591-2.673-2.591h-2.579zm12.555-2.589c0-1.247.901-1.791 1.74-1.791s1.741.544 1.741 1.791c0 1.215-.902 1.759-1.741 1.759-.839.032-1.74-.512-1.74-1.759zm3.046 0c0-.991-.622-1.407-1.306-1.407s-1.336.416-1.336 1.407c0 .959.653 1.407 1.336 1.407s1.306-.416 1.306-1.407zm-1.896-.896h.621c.311 0 .622.096.622.544 0 .256-.186.416-.404.48l.404.736h-.373l-.373-.704h-.155v.704h-.342v-1.76zm.653.8c.155 0 .279-.096.279-.256 0-.192-.155-.224-.279-.224h-.311v.48h.311z"/></g><defs><clipPath id="A"><path fill="#fff" d="M0 0h198v30H0z"/></clipPath></defs></svg>
